src/assets/img/creator/type-cards/svg/food.svg

<svg fill="none" height="150" viewBox="0 0 150 150" width="150" xmlns="http://www.w3.org/2000/svg"><path d="m0 0h150v150h-150z"/><path d="m58.75 42.6875v-13.125c0-.8702.3424-1.7048.9519-2.3202.6095-.6153 1.4362-.9611 2.2981-.9611.862 0 1.6886.3458 2.2981.9611.6095.6154.9519 1.45.9519 2.3202v13.125c0 .8702-.3424 1.7048-.9519 2.3202-.6095.6153-1.4361.9611-2.2981.9611-.8619 0-1.6886-.3458-2.2981-.9611-.6095-.6154-.9519-1.45-.9519-2.3202zm16.25 3.2813c.862 0 1.6886-.3458 2.2981-.9611.6095-.6154.9519-1.45.9519-2.3202v-13.125c0-.8702-.3424-1.7048-.9519-2.3202-.6095-.6153-1.4361-.9611-2.2981-.9611-.8619 0-1.6886.3458-2.2981.9611-.6095.6154-.9519 1.45-.9519 2.3202v13.125c0 .8702.3424 1.7048.9519 2.3202.6095.6153 1.4362.9611 2.2981.9611zm13 0c.862 0 1.6886-.3458 2.2981-.9611.6095-.6154.9519-1.45.9519-2.3202v-13.125c0-.8702-.3424-1.7048-.9519-2.3202-.6095-.6153-1.4361-.9611-2.2981-.9611-.8619 0-1.6886.3458-2.2981.9611-.6095.6154-.9519 1.45-.9519 2.3202v13.125c0 .8702.3424 1.7048.9519 2.3202.6095.6153 1.4362.9611 2.2981.9611zm37.7 19.0312-11.7 8.8594v24.6094c0 3.4812-1.37 6.8192-3.808 9.2812-2.438 2.461-5.744 3.844-9.192 3.844h-52c-3.4478 0-6.7544-1.383-9.1924-3.844-2.4379-2.462-3.8076-5.8-3.8076-9.2812v-24.6094l-11.7-8.8594c-.6895-.5221-1.1454-1.2995-1.2673-2.161s.1001-1.7366.6173-2.4328c.5172-.6961 1.2871-1.1564 2.1404-1.2795.8533-.123 1.7201.1012 2.4096.6233l7.8 5.9062v-6.5624c0-1.7405.6848-3.4097 1.9038-4.6404s2.8723-1.9222 4.5962-1.9222h65c1.724 0 3.377.6915 4.596 1.9222s1.904 2.8999 1.904 4.6404v6.5624l7.8-5.9062c.69-.5221 1.556-.7463 2.41-.6233.853.1231 1.623.5834 2.14 1.2795.517.6962.739 1.5713.617 2.4328s-.577 1.6389-1.267 2.161zm-18.2-5.9062h-65v39.375c0 1.7402.6848 3.4092 1.9038 4.6402s2.8723 1.922 4.5962 1.922h52c1.724 0 3.377-.691 4.596-1.922s1.904-2.9 1.904-4.6402z" fill="#fcfbff"/></svg>

<svg width="150" height="150" viewBox="0 0 150 150" fill="none" xmlns="http://www.w3.org/2000/svg">
<rect width="150" height="150" />
<g id="food">
<path id="Vector" d="M58.75 42.6875V29.5625C58.75 28.6923 59.0924 27.8577 59.7019 27.2423C60.3114 26.627 61.1381 26.2812 62 26.2812C62.862 26.2812 63.6886 26.627 64.2981 27.2423C64.9076 27.8577 65.25 28.6923 65.25 29.5625V42.6875C65.25 43.5577 64.9076 44.3923 64.2981 45.0077C63.6886 45.623 62.862 45.9688 62 45.9688C61.1381 45.9688 60.3114 45.623 59.7019 45.0077C59.0924 44.3923 58.75 43.5577 58.75 42.6875ZM75 45.9688C75.862 45.9688 76.6886 45.623 77.2981 45.0077C77.9076 44.3923 78.25 43.5577 78.25 42.6875V29.5625C78.25 28.6923 77.9076 27.8577 77.2981 27.2423C76.6886 26.627 75.862 26.2812 75 26.2812C74.1381 26.2812 73.3114 26.627 72.7019 27.2423C72.0924 27.8577 71.75 28.6923 71.75 29.5625V42.6875C71.75 43.5577 72.0924 44.3923 72.7019 45.0077C73.3114 45.623 74.1381 45.9688 75 45.9688ZM88 45.9688C88.862 45.9688 89.6886 45.623 90.2981 45.0077C90.9076 44.3923 91.25 43.5577 91.25 42.6875V29.5625C91.25 28.6923 90.9076 27.8577 90.2981 27.2423C89.6886 26.627 88.862 26.2812 88 26.2812C87.1381 26.2812 86.3114 26.627 85.7019 27.2423C85.0924 27.8577 84.75 28.6923 84.75 29.5625V42.6875C84.75 43.5577 85.0924 44.3923 85.7019 45.0077C86.3114 45.623 87.1381 45.9688 88 45.9688ZM125.7 65L114 73.8594V98.4688C114 101.95 112.63 105.288 110.192 107.75C107.754 110.211 104.448 111.594 101 111.594H49C45.5522 111.594 42.2456 110.211 39.8076 107.75C37.3697 105.288 36 101.95 36 98.4688V73.8594L24.3 65C23.6105 64.4779 23.1546 63.7005 23.0327 62.839C22.9108 61.9775 23.1328 61.1024 23.65 60.4062C24.1672 59.7101 24.9371 59.2498 25.7904 59.1267C26.6437 59.0037 27.5105 59.2279 28.2 59.75L36 65.6562V59.0938C36 57.3533 36.6848 55.6841 37.9038 54.4534C39.1228 53.2227 40.7761 52.5312 42.5 52.5312H107.5C109.224 52.5312 110.877 53.2227 112.096 54.4534C113.315 55.6841 114 57.3533 114 59.0938V65.6562L121.8 59.75C122.49 59.2279 123.356 59.0037 124.21 59.1267C125.063 59.2498 125.833 59.7101 126.35 60.4062C126.867 61.1024 127.089 61.9775 126.967 62.839C126.845 63.7005 126.39 64.4779 125.7 65ZM107.5 59.0938H42.5V98.4688C42.5 100.209 43.1848 101.878 44.4038 103.109C45.6228 104.34 47.2761 105.031 49 105.031H101C102.724 105.031 104.377 104.34 105.596 103.109C106.815 101.878 107.5 100.209 107.5 98.4688V59.0938Z" fill="#FCFBFF"/>
</g>
</svg>
